dist/icons/shopping_cart.svg

<svg width="36" height="36" fill="none" xmlns="http://www.w3.org/2000/svg"><path d="M10.5 27a2.996 2.996 0 0 0-2.985 3c0 1.65 1.335 3 2.985 3s3-1.35 3-3-1.35-3-3-3Zm-9-24v3h3l5.4 11.385-2.025 3.675A2.9 2.9 0 0 0 7.5 22.5c0 1.65 1.35 3 3 3h18v-3H11.13a.371.371 0 0 1-.375-.375l.045-.18 1.35-2.445h11.175a2.986 2.986 0 0 0 2.625-1.545l5.37-9.735c.12-.21.18-.465.18-.72 0-.825-.675-1.5-1.5-1.5H7.815l-1.41-3H1.5Zm24 24a2.996 2.996 0 0 0-2.985 3c0 1.65 1.335 3 2.985 3s3-1.35 3-3-1.35-3-3-3Z" fill="#2D2D2D"/></svg>

<svg width="36" height="36" viewBox="0 0 36 36" fill="none" xmlns="http://www.w3.org/2000/svg">
<path d="M10.5 27C8.85 27 7.515 28.35 7.515 30C7.515 31.65 8.85 33 10.5 33C12.15 33 13.5 31.65 13.5 30C13.5 28.35 12.15 27 10.5 27ZM1.5 3V6H4.5L9.9 17.385L7.875 21.06C7.635 21.48 7.5 21.975 7.5 22.5C7.5 24.15 8.85 25.5 10.5 25.5H28.5V22.5H11.13C10.92 22.5 10.755 22.335 10.755 22.125L10.8 21.945L12.15 19.5H23.325C24.45 19.5 25.44 18.885 25.95 17.955L31.32 8.22C31.44 8.01 31.5 7.755 31.5 7.5C31.5 6.675 30.825 6 30 6H7.815L6.405 3H1.5ZM25.5 27C23.85 27 22.515 28.35 22.515 30C22.515 31.65 23.85 33 25.5 33C27.15 33 28.5 31.65 28.5 30C28.5 28.35 27.15 27 25.5 27Z" fill="#2D2D2D"/>
</svg>
